Adwaita++/devices/16/smartphone.svg

<svg fill="none" height="16" viewBox="0 0 16 16" width="16" xmlns="http://www.w3.org/2000/svg">
  <path clip-rule="evenodd" d="m5 2.5v10h6v-10zm-.5-1.5c-.55228 0-1 .44772-1 1v12c0 .5523.44772 1 1 1h7c.5523 0 1-.4477 1-1v-12c0-.55228-.4477-1-1-1z" fill="#474747" fill-rule="evenodd"/>
</svg>

<svg width="16" height="16" viewBox="0 0 16 16" fill="none" xmlns="http://www.w3.org/2000/svg">
<path fill-rule="evenodd" clip-rule="evenodd" d="M5 2.5V12.5H11V2.5H5ZM4.5 1C3.94772 1 3.5 1.44772 3.5 2V14C3.5 14.5523 3.94772 15 4.5 15H11.5C12.0523 15 12.5 14.5523 12.5 14V2C12.5 1.44772 12.0523 1 11.5 1H4.5Z" fill="#474747"/>
</svg>
